**kern	**kern	**kern	**kern
*staff3	*staff4	*staff1	*staff2
*clefF4	*clefF4	*clefG2	*clefG2
*k[f#c#]	*k[f#c#]	*k[f#c#]	*k[f#c#]
*M2/4	*M2/4	*M2/4	*M2/4
*D:	*D:	*D:	*D:
=-	=-	=-	=-
4d	[2D	(8ff#L	2r
.	.	8ddd'J)	.
4c#	.	(8eeL	.
.	.	8ddd'J)	.
=169	=169	=169	=169
4B 4d	2D_	(8ddL	2r
.	.	8ddd'J)	.
[4A 4c#	.	(8cc#L	.
.	.	8ddd'J)	.
=170	=170	=170	=170
4A] 4c	2D_	(8ccL	2r
.	.	8ddd'J)	.
4G 4B	.	(8bL	.
.	.	8ddd'J)	.
=171	=171	=171	=171
4G 4B-	2D]	(8b-L	2r
.	.	8ddd'J)	.
4F# 4A	.	(8aL	.
.	.	8ddd'J)	.
=172	=172	=172	=172
4F# 4A	[2AA	(8aL	2r
.	.	8aa'J)	.
4G 4B	.	(8bL	.
.	.	8aa'J)	.
=173	=173	=173	=173
4E 4G	2AA_	(8gL	2r
.	.	8aa'J)	.
4D 4F#	.	(8f#L	.
.	.	8aa'J)	.
=174	=174	=174	=174
4C# 4E	2AA_	(8eL	2r
.	.	8aa'J)	.
4BB 4D	.	(8dL	.
.	.	8aa'J)	.
=175	=175	=175	=175
4C# 4E	4.AA]	(8eL	2r
.	.	8aa'J)	.
8A	.	4r	.
8r	8r	.	.
=176:|!|:	=176:|!|:	=176:|!|:	=176:|!|:
*-	*-	*-	*-
